!!!COM: Bach, Johann Sebastian
!!!OTL: Inventio No. 1
!! Two-part invention: Inventio 1; in C major; BWV 772
!! Bach-Gesellschaft edition, p. 1
!! Performance duration: 1:29; performance tempo: 59.3 quarter-notes per minute.
!! (Andras Schiff, piano, "Two-Part Inventions BWV 772a-786; Three-part
!! Inventions BWV 787-801" Decca 411 974-2)
!! NOTE: Double-stops occur in the last bar (bar 22).
**kern	**kern
*clefF4	*clefG2
*k[]	*k[]
*C:	*C:
*M4/4	*M4/4
*MM59.3	*MM59.3
=1	=1
2r	16r
.	L16c
.	16d
.	J16e
.	L16f
.	16d
.	16e
.	J16c
16r	L8g
L16C	.
16D	J8cc
J16E	.
L16F	L8bM
16D	.
16E	J8cc
J16C	.
=2	=2
L8G	L16dd
.	16g
J8GG	16a
.	J16b
4r	L16cc
.	16a
.	16b
.	J16g
16r	L8dd
L16G	.
16A	J8gg
J16B	.
L16c	L8ffM
16A	.
16B	J8gg
J16G	.
=3	=3
L8c	L16ee
.	16aa
J8B	16gg
.	J16ff
L8c	L16ee
.	16gg
J8d	16ff
.	J16aa
L8e	L16gg
.	16ff
J8G	16ee
.	J16dd
L8A	L16cc
.	16ee
J8B	16dd
.	J16ff
=4	=4
L8c	L16ee
.	16dd
J8E	16cc
.	J16b
L8F#	L16a
.	16cc
J8G	16b
.	J16dd
L8A	L16cc
.	16b
J8B	16a
.	J16g
[4c	L16f#
.	16a
.	16g
.	J16b
=5	=5
L16c]	L8a
16D	.
16E	J8d
J16F#	.
L16G	L8.ccW
16E	.
16F#	.
J16D	J16dd
L8G	L16b
.	16a
J8BB	16g
.	J16f#
L8C	L16e
.	16g
J8D	16f#
.	J16a
=6	=6
L8E	L16g
.	16b
J8F#	16a
.	J16cc
L8G	L16b
.	16dd
J8E	16cc
.	J16ee
L8.BB	L16dd
.	32b
.	32cc
.	16dd
J16C	J16gg
L8D	L8bM
8DD	16a
.	J16g
=7	=7
16r	8g
L16GG	.
16AA	8r
J16BB	.
L16C	4r
16AA	.
16BB	.
J16GG	.
L8D	16r
.	L16g
J8G	16a
.	J16b
L8F#	L16cc
.	16a
J8G	16b
.	J16g
=8	=8
L16A	8f#M
16D	.
16E	8r
J16F#	.
L16G	4r
16E	.
16F#	.
J16D	.
L8A	16r
.	L16a
J8d	16b
.	J16cc
L8c	L16dd
.	16b
J8d	16cc
.	J16a
=9	=9
L16G	8b
16g	.
16f	8r
J16e	.
L16d	4r
16f	.
16e	.
J16g	.
L8f	16r
.	L16dd
J8e	16cc
.	J16b
L8f	L16a
.	16cc
8d	16b
.	J16dd
=10	=10
L16e	L8cc
16a	.
16g	8r
J16f	.
L16e	4r
16g	.
16f	.
J16a	.
L8g	16r
.	L16ee
J8f	16dd
.	J16cc
L8g	L16b
.	16dd
J8e	16cc#
.	J16ee
=11	=11
L16f	L8dd
16b-	.
16a	J8cc#
J16g	.
L16f	L8dd
16a	.
16g	J8ee
J16b-	.
L16a	L8ff
16g	.
16f	8a
J16e	.
L16d	L8bn
16f	.
16e	J8cc#
J16g	.
=12	=12
L16f	L8dd
16e	.
16d	J8f#
J16c	.
L16B	L8g#
16d	.
16c	J8a
J16e	.
L16d	L8b
16c	.
16B	J8cc
J16A	.
L16G#	[4dd
16B	.
16A	.
J16c	.
=13	=13
L8B	L16dd]
.	16e
J8E	16f#
.	J16g#
L8.dW	L16a
.	16f#
.	16g#
J16e	J16e
L16c	L16ee
16B	16dd
16A	16cc
J16Gn	J16ee
L16F#	L16dd
16A	16cc
16G#	16b
J16B	J16dd
=14	=14
L16A	L16cc
16c	16aa
16B	16gg#
J16d	J16bb
L16c	L16aa
16e	16ee
16d	16ff
J16f	J16dd
L8e	L16g#
.	16ff
J8A	16ee
.	J16dd
L8e	L8cc
J8E	16b
.	J16a
=15	=15
L8A	L16a
.	16aa
J8AA	16gg
.	J16ff
4r	L16ee
.	16gg
.	16ff
.	J16aa
16r	[2gg
L16e	.
16d	.
J16c	.
L16B	.
16d	.
16c#	.
J16e	.
=16	=16
[2d	L16gg]
.	16ee
.	16ff
.	J16gg
.	L16aa
.	16ff
.	16gg
.	J16ee
L16d]	[2ff
16A	.
16B	.
J16c	.
L16d	.
16B	.
16c	.
J16A	.
=17	=17
[2B	L16ff]
.	16gg
.	16ff
.	J16ee
.	L16dd
.	16ff
.	16ee
.	J16gg
L16B]	[2ff
16d	.
16c	.
J16B	.
L16A	.
16c	.
16B	.
J16d	.
=18	=18
[2c	L16ff]
.	16dd
.	16ee
.	J16ff
.	L16gg
.	16ee
.	16ff
.	J16dd
L16c]	[2ee
16G	.
16A	.
J16B-	.
L16c	.
16A	.
16B-	.
J16G	.
=19	=19
L8A	L16ee]
.	16cc
J8B-	16dd
.	J16ee
L8A	L16ff
.	16dd
J8G	16ee
.	J16cc
L8F	L16dd
.	16ee
J8d	16ff
.	J16gg
L8c	L16aa
.	16ff
J8B-	16gg
.	J16ee
=20	=20
L8A	L16ff
.	16gg
J8f	16aa
.	J16bb
L8e	L16ccc
.	16aa
J8d	16bb
.	J16gg
L16e	L8ccc
16D	.
16E	J8gg
J16F	.
L16G	L8ee
16E	.
16F	16dd
J16D	J16cc
=21	=21
L8E	L16cc
.	16b-
J8C	16a
.	J16g
L8D	L16f
.	16a
J8E	16g
.	J16b-
L16F	L16a
16D	16bn
16E	16cc
J16F	J16e
L8G	L16d
.	16cc
J8GG	16f
.	J16b
=22	=22
1CC; 1C;	1e; 1g; 1cc;
==	==
*-	*-
!!!CDT: 1685/3//-1750/7/28
!!!OCY: Deutschland
